X:141
T:Lost Lady Found - Rich
%%VWML:SBG-1-2-647-0
F:http://www.vwml.org/record/SBG/1/2/647
Z:Original Sibelius transcriptions by M. & S. Graebe
M:3/8
I:linebreak $
K:F
V:1 treble nm="P1"
V:1
 C | A A G/A/ | B/c/ A A | c d/e/ d | c2 C | G G F/G/ | A/B/ A F | F E F |$ G2 C | A A G/A/ | %10
 B/c/ A G | c f e | d2 c | d e d | c A F/G/ | A B A/G/ | F2 x | %17

